client/public/assets/img/LAUNCH/CLAN/mask4.svg

<svg width="344" height="531" viewBox="0 0 344 531" fill="none" xmlns="http://www.w3.org/2000/svg">
<path d="M175.796 163.001C175.796 163.001 186.305 242.41 165.44 342.317C144.574 442.223 195.084 517.422 195.084 517.422" stroke="black" stroke-width="7.5"/>
<path d="M175.796 163.001C175.796 163.001 186.305 242.41 165.44 342.317C144.574 442.223 195.084 517.422 195.084 517.422" stroke="black" stroke-width="2.5"/>
<path d="M175.796 163.001C175.796 163.001 186.305 242.41 165.44 342.317C144.574 442.223 195.084 517.422 195.084 517.422" stroke="#FFDE00" stroke-width="2.5"/>
<path d="M129.412 117.499C122.77 125.31 113.201 137.582 117.724 158.747C124.189 189.014 149.518 193.46 149.518 193.46C149.518 193.46 139.842 174.101 138.709 168.798C136.046 156.337 153.205 132.545 153.205 132.545L129.412 117.499Z" fill="#FFDE00" stroke="#1B1A1A" stroke-width="2.5" stroke-miterlimit="10"/>
<path d="M114.654 99.52C106.217 105.346 93.7976 114.723 92.6883 136.337C91.0998 167.246 114.415 178.096 114.415 178.096C114.415 178.096 110.079 156.893 110.357 151.477C111.01 138.752 133.742 120.212 133.742 120.212L114.654 99.52Z" fill="#FFDE00" stroke="#1B1A1A" stroke-width="2.5" stroke-miterlimit="10"/>
<path d="M155.052 121.811C148.41 129.623 138.841 141.894 143.363 163.059C149.829 193.326 175.158 197.772 175.158 197.772C175.158 197.772 165.482 178.414 164.349 173.11C161.686 160.65 178.844 136.858 178.844 136.858L155.052 121.811Z" fill="#FFDE00" stroke="#1B1A1A" stroke-width="2.5" stroke-miterlimit="10"/>
<path d="M192.254 103.934C201.658 108.02 215.656 114.819 220.922 135.811C228.454 165.831 207.675 180.983 207.675 180.983C207.675 180.983 207.831 159.341 206.512 154.081C203.412 141.722 177.525 127.925 177.525 127.925L192.254 103.934Z" fill="#FFDE00" stroke="#1B1A1A" stroke-width="2.5" stroke-miterlimit="10"/>
<path d="M197.58 81.2917C207.721 82.8042 223.001 85.7489 233.521 104.663C248.567 131.71 232.417 151.724 232.417 151.724C232.417 151.724 226.967 130.779 224.331 126.04C218.138 114.904 189.562 108.277 189.562 108.277L197.58 81.2917Z" fill="#FFDE00" stroke="#1B1A1A" stroke-width="2.5" stroke-miterlimit="10"/>
<path d="M171.138 119.103C180.542 123.189 194.539 129.988 199.805 150.98C207.338 181 186.559 196.152 186.559 196.152C186.559 196.152 186.715 174.51 185.396 169.25C182.295 156.891 156.409 143.094 156.409 143.094L171.138 119.103Z" fill="#FFDE00" stroke="#1B1A1A" stroke-width="2.5" stroke-miterlimit="10"/>
<path d="M150.902 61.6055C141.265 66.2107 129.677 62.0429 125.019 52.2964C120.362 42.55 124.399 30.9157 134.036 26.3105C143.673 21.7053 155.261 25.8732 159.919 35.6196C164.576 45.3661 160.539 57.0004 150.902 61.6055Z" fill="#FFDE00" stroke="#1B1A1A" stroke-width="2.5" stroke-miterlimit="10"/>
<path d="M146.586 79.3371C150.945 98.1064 172.786 128.937 186.304 139.943C193.626 145.907 204.628 143.352 208.574 134.773C215.858 118.936 221.881 81.6354 217.523 62.8661C213.094 43.8041 191.97 24.9075 172.383 29.4555C152.796 34.0035 142.16 60.2745 146.586 79.3371Z" fill="#E30613" stroke="#1B1A1A" stroke-width="2.5" stroke-miterlimit="10"/>
<path d="M83.3679 94.831C87.726 113.6 109.568 144.431 123.086 155.437C130.408 161.401 141.41 158.846 145.355 150.267C152.64 134.429 158.662 97.1293 154.304 78.36C149.876 59.298 128.752 40.4014 109.165 44.9494C89.5777 49.4974 78.9416 75.7684 83.3679 94.831Z" fill="#E30613" stroke="#1B1A1A" stroke-width="2.5" stroke-miterlimit="10"/>
<path d="M170.932 166.555C200.966 159.581 219.661 129.579 212.686 99.5425C205.712 69.5063 175.71 50.8105 145.676 57.7844C115.641 64.7583 96.9466 94.761 103.921 124.797C110.895 154.834 140.897 173.529 170.932 166.555Z" fill="#009FE3" stroke="#1B1A1A" stroke-width="2.5" stroke-miterlimit="10"/>
<path d="M168.9 157.804C194.101 151.952 209.788 126.777 203.936 101.574C198.084 76.3713 172.909 60.6839 147.708 66.5356C122.506 72.3873 106.82 97.5622 112.672 122.765C118.524 147.968 143.698 163.656 168.9 157.804Z" fill="#FFDE00" stroke="#1B1A1A" stroke-width="2.5" stroke-miterlimit="10"/>
<path d="M132.501 88.5056C137.016 81.2586 136.653 72.8762 131.689 69.7831C126.725 66.6899 119.041 70.0572 114.525 77.3041C110.01 84.5511 110.373 92.9335 115.337 96.0267C120.301 99.1199 127.985 95.7525 132.501 88.5056Z" fill="#009FE3" stroke="#1B1A1A" stroke-width="2.5" stroke-miterlimit="10"/>
<path d="M125.563 84.1859C130.079 76.9389 129.715 68.5566 124.751 65.4634C119.788 62.3702 112.103 65.7375 107.588 72.9845C103.072 80.2315 103.436 88.6138 108.399 91.707C113.363 94.8002 121.048 91.4329 125.563 84.1859Z" fill="#E30613" stroke="#1B1A1A" stroke-width="2.5" stroke-miterlimit="10"/>
<path d="M115.868 78.1412C120.383 70.8942 120.02 62.5119 115.056 59.4187C110.092 56.3255 102.408 59.6928 97.8923 66.9398C93.3768 74.1867 93.7402 82.5691 98.7039 85.6623C103.668 88.7555 111.352 85.3882 115.868 78.1412Z" fill="#FFDE00" stroke="#1B1A1A" stroke-width="2.5" stroke-miterlimit="10"/>
<path d="M190.965 78.4663C194.058 73.5024 190.69 65.8175 183.444 61.3017C176.197 56.7859 167.815 57.1491 164.722 62.113C161.629 67.0769 164.996 74.7618 172.243 79.2776C179.49 83.7935 187.872 83.4302 190.965 78.4663Z" fill="#009FE3" stroke="#1B1A1A" stroke-width="2.5" stroke-miterlimit="10"/>
<path d="M195.288 71.5319C198.381 66.568 195.014 58.8832 187.767 54.3673C180.52 49.8515 172.138 50.2147 169.045 55.1786C165.952 60.1425 169.32 67.8274 176.566 72.3432C183.813 76.8591 192.195 76.4959 195.288 71.5319Z" fill="#E30613" stroke="#1B1A1A" stroke-width="2.5" stroke-miterlimit="10"/>
<path d="M201.329 61.8329C204.422 56.869 201.055 49.1841 193.808 44.6683C186.561 40.1524 178.179 40.5156 175.086 45.4796C171.993 50.4435 175.36 58.1283 182.607 62.6442C189.854 67.16 198.236 66.7968 201.329 61.8329Z" fill="#FFDE00" stroke="#1B1A1A" stroke-width="2.5" stroke-miterlimit="10"/>
<path d="M169.635 128.783L155.452 132.076C152.478 132.767 150.397 135.446 150.461 138.499L150.691 148.977C150.78 153.069 154.612 156.045 158.6 155.119L176.963 150.855C180.95 149.929 183.075 145.57 181.355 141.857L176.945 132.35C175.658 129.581 172.608 128.092 169.635 128.783Z" fill="#E30613" stroke="#1B1A1A" stroke-width="2.5" stroke-miterlimit="10"/>
<path d="M161.536 126.094C174.473 123.09 182.525 110.167 179.521 97.2294C176.517 84.292 163.594 76.2393 150.658 79.2431C137.721 82.2469 129.669 95.1699 132.673 108.107C135.677 121.045 148.599 129.097 161.536 126.094Z" fill="#E30613" stroke="#1B1A1A" stroke-width="2.5" stroke-miterlimit="10"/>
<path d="M160.27 119.257C169.615 117.087 175.432 107.752 173.262 98.4053C171.092 89.0591 161.757 83.2417 152.411 85.4117C143.065 87.5818 137.248 96.9175 139.418 106.264C141.588 115.61 150.924 121.427 160.27 119.257Z" fill="#009FE3" stroke="#1B1A1A" stroke-width="2.5" stroke-miterlimit="10"/>
<path d="M157.427 107.015C165.368 105.171 171.303 101.512 170.683 98.843C170.063 96.1737 163.123 95.5045 155.182 97.3484C147.241 99.1923 141.306 102.851 141.926 105.52C142.545 108.19 149.486 108.859 157.427 107.015Z" fill="#FFFBF1" stroke="#1B1A1A" stroke-width="2.5" stroke-miterlimit="10"/>
<path d="M142.67 46.5424C150.611 44.6985 156.546 41.0398 155.927 38.3705C155.307 35.7011 148.367 35.032 140.426 36.8759C132.484 38.7198 126.549 42.3785 127.169 45.0478C127.789 47.7171 134.729 48.3863 142.67 46.5424Z" fill="#FFFBF1" stroke="#1B1A1A" stroke-width="2.5" stroke-miterlimit="10"/>
<path d="M157.424 107.003C160.032 106.397 161.655 103.792 161.049 101.184C160.444 98.5757 157.839 96.9523 155.231 97.5579C152.623 98.1634 150.999 100.769 151.605 103.377C152.211 105.985 154.816 107.608 157.424 107.003Z" fill="#1B1A1A" stroke="#1B1A1A" stroke-width="2.5" stroke-miterlimit="10"/>
<path d="M142.667 46.5301C145.275 45.9246 146.898 43.3194 146.293 40.7112C145.687 38.1031 143.082 36.4797 140.474 37.0853C137.866 37.6908 136.243 40.296 136.848 42.9042C137.454 45.5123 140.059 47.1357 142.667 46.5301Z" fill="#1B1A1A" stroke="#1B1A1A" stroke-width="2.5" stroke-miterlimit="10"/>
<path d="M109.989 77.5973C107.319 78.8732 104.038 77.5715 102.661 74.69C101.284 71.8084 102.333 68.4381 105.003 67.1622C107.673 65.8863 110.954 67.1879 112.33 70.0695C113.707 72.9511 112.659 76.3213 109.989 77.5973Z" fill="#E30613" stroke="#1B1A1A" stroke-width="2.5" stroke-miterlimit="10"/>
<path d="M190.934 58.8023C188.264 60.0782 184.983 58.7765 183.606 55.895C182.229 53.0134 183.278 49.6431 185.948 48.3672C188.618 47.0913 191.899 48.393 193.276 51.2745C194.652 54.1561 193.604 57.5264 190.934 58.8023Z" fill="#E30613" stroke="#1B1A1A" stroke-width="2.5" stroke-miterlimit="10"/>
</svg>

<?xml version="1.0" encoding="utf-8"?>
<!-- Generator: Adobe Illustrator 24.1.3, SVG Export Plug-In . SVG Version: 6.00 Build 0)  -->
<svg version="1.1" id="Layer_1" xmlns="http://www.w3.org/2000/svg" xmlns:xlink="http://www.w3.org/1999/xlink" x="0px" y="0px"
	 viewBox="0 0 344 531" style="enable-background:new 0 0 344 531;" xml:space="preserve">
<style type="text/css">
	.st0{fill:none;stroke:#000000;stroke-width:7.5;}
	.st1{fill:none;stroke:#000000;stroke-width:2.5;}
	.st2{fill:none;stroke:#FFDE00;stroke-width:2.5;}
	.st3{fill:#FFDE00;stroke:#1B1A1A;stroke-width:2.5;stroke-miterlimit:10;}
	.st4{fill:#E30613;stroke:#1B1A1A;stroke-width:2.5;stroke-miterlimit:10;}
	.st5{fill:#009FE3;stroke:#1B1A1A;stroke-width:2.5;stroke-miterlimit:10;}
	.st6{fill:#FFFBF1;stroke:#1B1A1A;stroke-width:2.5;stroke-miterlimit:10;}
	.st7{fill:#1B1A1A;stroke:#1B1A1A;stroke-width:2.5;stroke-miterlimit:10;}
</style>
<path class="st0" d="M175.8,163c0,0,10.5,79.4-10.4,179.3c-20.9,99.9,29.6,175.1,29.6,175.1"/>
<path class="st1" d="M175.8,163c0,0,10.5,79.4-10.4,179.3c-20.9,99.9,29.6,175.1,29.6,175.1"/>
<path class="st2" d="M175.8,163c0,0,10.5,79.4-10.4,179.3c-20.9,99.9,29.6,175.1,29.6,175.1"/>
<path class="st3" d="M129.4,117.5c-6.6,7.8-16.2,20.1-11.7,41.2c6.5,30.3,31.8,34.7,31.8,34.7s-9.7-19.4-10.8-24.7
	c-2.7-12.5,14.5-36.3,14.5-36.3L129.4,117.5z"/>
<path class="st3" d="M114.7,99.5c-8.4,5.8-20.9,15.2-22,36.8c-1.6,30.9,21.7,41.8,21.7,41.8s-4.3-21.2-4.1-26.6
	c0.7-12.7,23.4-31.3,23.4-31.3L114.7,99.5z"/>
<path class="st3" d="M155.1,121.8c-6.6,7.8-16.2,20.1-11.7,41.2c6.5,30.3,31.8,34.7,31.8,34.7s-9.7-19.4-10.8-24.7
	c-2.7-12.5,14.5-36.3,14.5-36.3L155.1,121.8z"/>
<path class="st3" d="M192.3,103.9c9.4,4.1,23.4,10.9,28.7,31.9c7.5,30-13.2,45.2-13.2,45.2s0.2-21.6-1.2-26.9
	c-3.1-12.4-29-26.2-29-26.2L192.3,103.9z"/>
<path class="st3" d="M197.6,81.3c10.1,1.5,25.4,4.5,35.9,23.4c15,27-1.1,47.1-1.1,47.1s-5.5-20.9-8.1-25.7
	c-6.2-11.1-34.8-17.8-34.8-17.8L197.6,81.3z"/>
<path class="st3" d="M171.1,119.1c9.4,4.1,23.4,10.9,28.7,31.9c7.5,30-13.2,45.2-13.2,45.2s0.2-21.6-1.2-26.9
	c-3.1-12.4-29-26.2-29-26.2L171.1,119.1z"/>
<path class="st3" d="M150.9,61.6c-9.6,4.6-21.2,0.4-25.9-9.3c-4.7-9.7-0.6-21.4,9-26c9.6-4.6,21.2-0.4,25.9,9.3
	C164.6,45.4,160.5,57,150.9,61.6z"/>
<path class="st4" d="M146.6,79.3c4.4,18.8,26.2,49.6,39.7,60.6c7.3,6,18.3,3.4,22.3-5.2c7.3-15.8,13.3-53.1,8.9-71.9
	c-4.4-19.1-25.6-38-45.1-33.4S142.2,60.3,146.6,79.3z"/>
<path class="st4" d="M83.4,94.8c4.4,18.8,26.2,49.6,39.7,60.6c7.3,6,18.3,3.4,22.3-5.2c7.3-15.8,13.3-53.1,8.9-71.9
	c-4.4-19.1-25.6-38-45.1-33.4C89.6,49.5,78.9,75.8,83.4,94.8z"/>
<path class="st5" d="M170.9,166.6c30-7,48.7-37,41.8-67c-7-30-37-48.7-67-41.8c-30,7-48.7,37-41.8,67
	C110.9,154.8,140.9,173.5,170.9,166.6z"/>
<path class="st3" d="M168.9,157.8c25.2-5.9,40.9-31,35-56.2c-5.9-25.2-31-40.9-56.2-35c-25.2,5.9-40.9,31-35,56.2
	C118.5,148,143.7,163.7,168.9,157.8z"/>
<path class="st5" d="M132.5,88.5c4.5-7.2,4.2-15.6-0.8-18.7c-5-3.1-12.6,0.3-17.2,7.5c-4.5,7.2-4.2,15.6,0.8,18.7
	C120.3,99.1,128,95.8,132.5,88.5z"/>
<path class="st4" d="M125.6,84.2c4.5-7.2,4.2-15.6-0.8-18.7c-5-3.1-12.6,0.3-17.2,7.5c-4.5,7.2-4.2,15.6,0.8,18.7
	C113.4,94.8,121,91.4,125.6,84.2z"/>
<path class="st3" d="M115.9,78.1c4.5-7.2,4.2-15.6-0.8-18.7s-12.6,0.3-17.2,7.5c-4.5,7.2-4.2,15.6,0.8,18.7
	C103.7,88.8,111.4,85.4,115.9,78.1z"/>
<path class="st5" d="M191,78.5c3.1-5-0.3-12.6-7.5-17.2c-7.2-4.5-15.6-4.2-18.7,0.8s0.3,12.6,7.5,17.2
	C179.5,83.8,187.9,83.4,191,78.5z"/>
<path class="st4" d="M195.3,71.5c3.1-5-0.3-12.6-7.5-17.2c-7.2-4.5-15.6-4.2-18.7,0.8s0.3,12.6,7.5,17.2
	C183.8,76.9,192.2,76.5,195.3,71.5z"/>
<path class="st3" d="M201.3,61.8c3.1-5-0.3-12.6-7.5-17.2c-7.2-4.5-15.6-4.2-18.7,0.8c-3.1,5,0.3,12.6,7.5,17.2
	C189.9,67.2,198.2,66.8,201.3,61.8z"/>
<path class="st4" d="M169.6,128.8l-14.2,3.3c-3,0.7-5.1,3.4-5,6.4l0.2,10.5c0.1,4.1,3.9,7.1,7.9,6.1l18.4-4.3c4-0.9,6.1-5.3,4.4-9
	l-4.4-9.5C175.7,129.6,172.6,128.1,169.6,128.8z"/>
<path class="st4" d="M161.5,126.1c12.9-3,21-15.9,18-28.9c-3-12.9-15.9-21-28.9-18c-12.9,3-21,15.9-18,28.9
	C135.7,121,148.6,129.1,161.5,126.1z"/>
<path class="st5" d="M160.3,119.3c9.3-2.2,15.2-11.5,13-20.9c-2.2-9.3-11.5-15.2-20.9-13c-9.3,2.2-15.2,11.5-13,20.9
	C141.6,115.6,150.9,121.4,160.3,119.3z"/>
<path class="st6" d="M157.4,107c7.9-1.8,13.9-5.5,13.3-8.2c-0.6-2.7-7.6-3.3-15.5-1.5c-7.9,1.8-13.9,5.5-13.3,8.2
	C142.5,108.2,149.5,108.9,157.4,107z"/>
<path class="st6" d="M142.7,46.5c7.9-1.8,13.9-5.5,13.3-8.2c-0.6-2.7-7.6-3.3-15.5-1.5c-7.9,1.8-13.9,5.5-13.3,8.2
	C127.8,47.7,134.7,48.4,142.7,46.5z"/>
<path class="st7" d="M157.4,107c2.6-0.6,4.2-3.2,3.6-5.8c-0.6-2.6-3.2-4.2-5.8-3.6c-2.6,0.6-4.2,3.2-3.6,5.8S154.8,107.6,157.4,107z
	"/>
<path class="st7" d="M142.7,46.5c2.6-0.6,4.2-3.2,3.6-5.8c-0.6-2.6-3.2-4.2-5.8-3.6c-2.6,0.6-4.2,3.2-3.6,5.8
	C137.5,45.5,140.1,47.1,142.7,46.5z"/>
<path class="st4" d="M110,77.6c-2.7,1.3-6,0-7.3-2.9c-1.4-2.9-0.3-6.3,2.3-7.5s6,0,7.3,2.9C113.7,73,112.7,76.3,110,77.6z"/>
<path class="st4" d="M190.9,58.8c-2.7,1.3-6,0-7.3-2.9c-1.4-2.9-0.3-6.3,2.3-7.5c2.7-1.3,6,0,7.3,2.9
	C194.7,54.2,193.6,57.5,190.9,58.8z"/>
</svg>
